X:1
T:Cantate Domino (ps 95)
T:Ignatio Donati
T:Source : Primo libro di Motetti a voce sola---Venetia---A.Vincenti---1634. Editor André Vierendeels (14/12/16).
T:Notes : Original clefs : C1, F4 Editorial accidentals above the staff Original note values have been halved in 3-beat measures Figures in BC are notated in original print m 64 in BC : first "A" notated as "G" in original print "Canto o Tenore"
T:Cantate Domino (ps 95)
T:b
T:©
T:©
T:©
T:©
T:©
T:©
T:©
T:©
C:Ignatio Donati
Z:©
%%score 1 2
L:1/8
Q:1/4=100
M:4/4
K:F
V:1 treble nm="Soprano" snm="S"
V:2 bass nm="MusicXML Part"
V:1
 z4 c4 | d2 de c2 A2 | B/c/B/A/ G/A/B/c/ d/^F/G/A/ Bc | A4 F/E/D/E/ F/G/A/B/ | c6 AG | %5
w: Can-|ta- te, can- ta- te,|Do- * * * * * * * * * * * * mi-|no can- * * * * * * *|* ti- cum|
 G/F/E/F/ G/F/D/E/ F/G/A/B/ G/A/F | G4 F4 | F/D/E/F/ G/A/B/c/ d4- | d2 AG A4 | G4 z2 G/F/G/A/ | %10
w: no- * * * * * * * * * * * * * *|* vum,|can- * * * * * * * *|* ti- cum no-|vum, Can- * * *|
 B2 Bc A2 c2 | c2 =B2 c4 |"^b" d/f/e/d/ c/B/A/G/ F4- | F2 G2 G4 | F4 z2 A2 | B2 Bc A2 F2 | %16
w: ta- te, can- ta- te|Do- mi- no|o- * * * * * * * *|* nis ter-|ra, can-|ta- te, can- ta- te|
 G/B/A/G/ A/G/A/F/ G3 G | F2 A2 B2 c/A/B/c/ | d3 c B4 | B/F/G/A/ B/c/d/B/ _e4- | e2 dc d4 | c4 z4 | %22
w: Do- * * * * * * * * mi-|no et be- ne- * * *|di- ci- te|No- * * * * * * * *|* mi- ni e-|ius,|
 z2 G2 G2 G2 | AB/A/ GA/G/ F>G A/G/G/F/ | G4 z4 | z2 c2 c2 c2 |"^b" de/d/ c/d/c B>c d/c/c/B/ | %27
w: an- nun- ci-|a- * * * * * * * * * * *|te,|an- nun- ci-|a- * * * * * * * * * * *|
 c2 A2 d2 Bd | c2 A2 Bcde | ^c4 d2 A2 | B2 GB A2 F2 | GABc A4 | G8 |[M:3/2] d4 d4 ^c4 | d8 =B4 | %35
w: * te di- e in|di- em sa- lu- ta- re|e- ius, de|di- e in di- em|sa- lu- ta- re e-|ius,|an- nun- ci-|a- te|
 c8 =B4 | c8 A4 | B4 B2 B2 A4 | B8 z4 | A4 A4 G4 | A8 ^F4 | G8 ^F4 | G8 E4 | F4 F2 F2 E4 | %44
w: in- ter|gen- tes|glo- ri- am e-|ius,|an- nun- ci-|a- te|in- ter|gen- tes|glo- ri- am e-|
[M:4/4] F8 | z4 B4 | B3 B B4 | G/F/G/A/ B/G/A/B/ c3 G | A6 AB | c3 d _e4 | %50
w: ius|in|o- mni- bus|po- * * * * * * * * pu-|lis mi- ra-|bi- li- a|
 d/c/=B/A/ B/^c/d/B/ e/d/e/c/ d2 | c8 | z8 | z4 c4- | c2 c2 =B4 | c2 G2 A2 F2 | G6 GA | B2 cd A4 | %58
w: e- * * * * * * * * * * * *|ius.||Quo-|* ni- am|ma- gnus Do- mi-|nus et lau-|da- bi- lis ni-|
 G4 z2 =B2 | c2 AA B2 d2 | _e2 cc d4 | _edec d4 | c4 z2 A2 | B2 GG A2 ^c2 | d2 =BB c4- | c4 AGAF | %66
w: mis, ter-|ri- bi- lis est, ter-|ri- bi- lis est|su- per o- mnes De-|os, ter-|ri- bi- lis est, ter-|ri- bi- lis est|_ su- per o- mnes|
 G2- G/F/G/A/ B/G/A/B/ c/B/G/A/ | B/A/F/G/ A/G/E/F/ G/A/B/c/ G2 | F8 |] %69
w: De- * * * * * * * * * * * *||os.|
V:2
"^BC" F,8 | B,,4 F,,4 | G,,8 | F,,8 | F,2 E,D, C,2 B,,2 | C,8 | C,4 F,,4 | B,,6 A,,G,, |"^#" D,8 | %9
"^-natural""^(b)" G,,4 G,4 | G,4 F,2 A,2 |"^-natural" G,4 C,4 | B,,6 C,2 | D,2 B,,2 C,4 | %14
 F,,4 F,4 | G,4 F,4 | B,,2 D,2 C,4 | F,,2 F,2 _E,2 C,2 | B,,6 C,D, | _E,6 D,C, |"^-natural" G,8 | %21
 C,4 C,4 | C,2 C,2 =B,,2 C,2 | F,,8 | C,4 F,4 | F,2 F,2 E,2 F,2 | B,,8 | F,4 B,2 G,2 | %28
 A,2 F,2 G,2 B,2 |"^#""^#" A,4 D,4 | G,4 F,2 D,2 |"^#" _E,4 D,4 |"^-natural" G,,8 | %33
[M:3/2] B,4 G,4 A,4 |"^-natural" D,8 G,4 | E,4 F,4 G,4 | C,4 E,4 F,4 | B,,4 _E,4 F,4 | B,,8 z4 | %39
 F,4 D,4 E,4 |"^#" F,8 D,4 |"^#" =B,,4 C,4 D,4 |"^-natural" G,,4 =B,,4 C,4 | F,,4 B,,4 C,4 | %44
[M:4/4] F,,4 F,,4 | B,,6 C,D, |"^6" _E,4 D,4 |"^6" _E,4 E,4 |"^#""^b" D,4 D,4 |"^b" C,8 | %50
"^-natural" G,,8 | C,4 C,4- | C,2 C,2 =B,,4 | C,4 A,,4 | G,,8 | C,4 F,,4 | C,4 C,4 |"^#" G,,4 D,4 | %58
"^-natural""^-natural" G,,4 G,4 | E,2 F,2 B,,4 | _E,2 F,2 B,,4 |"^-natural" C,4 G,4 | C,4 F,4 | %63
 B,,2 C,2 A,,2 A,,2 |"^#""^#""^-natural" D,2 G,,2 C,4 | F,,8 | C,8- | C,8 | F,,8 |] %69

